X:028
T: Roy's Wife of Alldivaloch
N: O'Farrell's Pocket Companion v.1 (Sky ed. p.29)
N: "Scotch"
M: C
L: 1/8
Q: 100
R: strathspey
K: D
d/B/|A<F F>E F>E F<B |A<F F>D E>D E<F|A>F E>D d>e Hf>e|d>B A>F E>D E<HF ||
A/|A>B d>f e/d/e/f/ d>B|AB/c/ d>F E>D E<HF||
A/|A>B d>f e/d/g/f/ He d/e/|f>e d>F F>E F2||
